en/_assets/wiki/svg/type-text.svg

<svg xmlns="http://www.w3.org/2000/svg" xmlns:xlink="http://www.w3.org/1999/xlink" width="16" height="16" class="yc-icon GridTable-HeaderCellIcon" fill="currentColor" stroke="none" aria-hidden="true"><svg viewBox="0 0 12 12" xmlns="http://www.w3.org/2000/svg"><path d="M0.820312 1.85938H7.0918C7.37109 1.85938 7.625 1.63086 7.625 1.35156V1.17383C7.625 0.894531 7.37109 0.640625 7.0918 0.640625H0.820312C0.541016 0.640625 0.3125 0.894531 0.3125 1.17383V1.35156C0.3125 1.63086 0.541016 1.85938 0.820312 1.85938ZM0.820312 8.35938H7.0918C7.37109 8.35938 7.625 8.13086 7.625 7.85156V7.67383C7.625 7.39453 7.37109 7.14062 7.0918 7.14062H0.820312C0.541016 7.14062 0.3125 7.39453 0.3125 7.67383V7.85156C0.3125 8.13086 0.541016 8.35938 0.820312 8.35938ZM11.0781 3.89062H0.896484C0.566406 3.89062 0.3125 4.16992 0.3125 4.5C0.3125 4.85547 0.566406 5.10938 0.896484 5.10938H11.0781C11.4082 5.10938 11.6875 4.85547 11.6875 4.52539C11.6875 4.2207 11.4082 3.89062 11.0781 3.89062ZM11.0781 10.3906H0.896484C0.566406 10.3906 0.3125 10.6699 0.3125 11C0.3125 11.3555 0.566406 11.6094 0.896484 11.6094H11.0781C11.4082 11.6094 11.6875 11.3555 11.6875 11.0254C11.6875 10.7207 11.4082 10.3906 11.0781 10.3906Z"></path></svg></svg>

<svg xmlns="http://www.w3.org/2000/svg" width="16" height="16" fill="currentColor" aria-hidden="true" class="yc-icon GridTable-HeaderCellIcon"><svg xmlns="http://www.w3.org/2000/svg" viewBox="0 0 12 12"><path d="M.82 1.86h6.272c.28 0 .533-.23.533-.508v-.178A.554.554 0 0 0 7.092.64H.82c-.279 0-.507.254-.507.533v.178c0 .279.228.507.507.507Zm0 6.5h6.272c.28 0 .533-.23.533-.508v-.178a.554.554 0 0 0-.533-.533H.82c-.279 0-.507.254-.507.533v.178c0 .279.228.507.507.507Zm10.258-4.47H.896c-.33 0-.584.28-.584.61 0 .355.254.61.584.61h10.182c.33 0 .61-.255.61-.585 0-.304-.28-.634-.61-.634Zm0 6.5H.896c-.33 0-.584.28-.584.61 0 .355.254.61.584.61h10.182c.33 0 .61-.255.61-.585 0-.304-.28-.634-.61-.634Z"/></svg></svg>
